!!!COM: Palestrina, Giovanni Perluigi da
!!!OPR: Dilexi quoniam
!!!OTL: Credo
**kern	**kern	**kern	**kern	**kern
*Ibass	*Itenor	*Itenor	*Icalto	*Icant
!Bassus	!Tenor 2	!Tenor 1	!Altus	!Cantus
*clefF4	*clefGv2	*clefGv2	*clefG2	*clefG2
*k[]	*k[]	*k[]	*k[]	*k[]
*C:ion	*C:ion	*C:ion	*C:ion	*C:ion
*M4/2	*M4/2	*M4/2	*M4/2	*M4/2
=1	=1	=1	=1	=1
0r	0r	1d	0r	0r
.	.	2d	.	.
.	.	2d	.	.
=2	=2	=2	=2	=2
0r	1r	1g	0r	0r
.	2r	2f	.	.
.	2G	[2g	.	.
=3	=3	=3	=3	=3
0r	2G	4g]	0r	0r
.	.	4f	.	.
.	2G	4e	.	.
.	.	4d	.	.
.	1c	1e	.	.
=4	=4	=4	=4	=4
0r	2B	2d	1g	0r
.	2.c	2.e	.	.
.	.	.	2g	.
.	4B	4f	.	.
.	4A	[2g	2g	.
.	4G	.	.	.
=5	=5	=5	=5	=5
0r	1A	2g]	1cc	0r
.	.	2f#	.	.
.	2G	4g	2b	.
.	.	4f	.	.
.	4c	4e	[2cc	.
.	4d	4d	.	.
=6	=6	=6	=6	=6
0r	4e	4c	4cc]	1r
.	4f	4d	4b	.
.	2g	2e	4a	.
.	.	.	4g	.
.	2g	1d	1a	1dd
.	2f#	.	.	.
=7	=7	=7	=7	=7
1G	1g	2d	2g	2dd
.	.	2g	2b	2dd
2G	2d	2g	2b	2.gg
2G	2d	2g	2b	.
.	.	.	.	4ff
=8	=8	=8	=8	=8
1c	2e	1g	1cc	4ee
.	.	.	.	4dd
.	2c	.	.	2ee
2B	2d	2g	2g	2dd
2c	[2e	2e	2g	2cc
=9	=9	=9	=9	=9
4c	2e]	1.c	4a	0cc
4B	.	.	4g	.
4A	2c	.	1g	.
4G	.	.	.	.
1A	1c	.	.	.
.	.	2A	2f#	.
=10	=10	=10	=10	=10
1G	1d	2r	0g	0b
.	.	2.d	.	.
2.G	1r	.	.	.
.	.	4d	.	.
.	.	2e	.	.
4G	.	.	.	.
=11	=11	=11	=11	=11
2A	0r	2c	1r	0r
2F	.	2.d	.	.
1G	.	.	2.g	.
.	.	4c	.	.
.	.	2B	.	.
.	.	.	4g	.
=12	=12	=12	=12	=12
2.F	1r	4A	2a	0r
.	.	8B	.	.
.	.	8c	.	.
.	.	1d	2f	.
8E	.	.	.	.
8D	.	.	.	.
2E	2.G	.	1g	.
2E	.	2c#	.	.
.	4G	.	.	.
=13	=13	=13	=13	=13
1D	2A	1d	2f	2.dd
.	2B	.	2f	.
.	.	.	.	4dd
1r	2.c	1r	2e	1ee
.	.	.	[2g	.
.	4d	.	.	.
=14	=14	=14	=14	=14
0r	2e	0r	4g]	2cc
.	.	.	4g	.
.	2f	.	2a	2.dd
.	[1d	.	2f#	.
.	.	.	.	4cc
.	.	.	[2g	4b
.	.	.	.	8a
.	.	.	.	8g
=15	=15	=15	=15	=15
0r	1d]	0r	2g]	2a
.	.	.	2f#	2a
.	2r	.	[1g	1b
.	[2G	.	.	.
=16	=16	=16	=16	=16
2.C	2G]	2.e	0g]	0r
.	2G	.	.	.
4C	.	4e	.	.
2C	2.c	2e	.	.
2C	.	2e	.	.
.	4B	.	.	.
=17	=17	=17	=17	=17
2F	2A	2d	1r	0r
2E	2G	2c	.	.
2F	2A	2d	2r	.
[2G	[2B	2e	[2g	.
=18	=18	=18	=18	=18
2G]	2B]	2d	2g]	0r
2E	2c	2.c	2g	.
1D	1d	.	1f	.
.	.	8B	.	.
.	.	8A	.	.
.	.	2B	.	.
=19	=19	=19	=19	=19
0C	1G	2c	2e	2r
.	.	2.c	2.g	2.ee
.	1r	.	.	.
.	.	4c	4g	4ee
.	.	2c	2g	2ee
=20	=20	=20	=20	=20
0r	0r	2f	2a	2dd
.	.	2e	2g	2cc
.	.	2f	2a	2dd
.	.	[2g	[2b	2ee
=21	=21	=21	=21	=21
0r	1r	4g]	2b]	2dd
.	.	4f	.	.
.	.	2e	1g	1cc
.	[1G	2d	.	.
.	.	2d	2g	2b
=22	=22	=22	=22	=22
1.C	2G]	2c	2.e	1cc
.	2G	1e	.	.
.	.	.	4f	.
.	1c	.	1g	2r
2C	.	2e	.	[2cc
=23	=23	=23	=23	=23
2F	1A	2c	0r	2cc]
2F	.	2c	.	2cc
1D	1B	1d	.	2ff
.	.	.	.	2ff
=24	=24	=24	=24	=24
1C	1c	1e	1.g	1ee
1r	2r	1r	.	2dd
.	[2c	.	2g	[2ee
=25	=25	=25	=25	=25
0r	2c]	0r	1cc	2ee]
.	2c	.	.	2ee
.	1f	.	2a	2dd
.	.	.	2a	2cc
=26	=26	=26	=26	=26
1.G	2d	0r	2.g	4b
.	.	.	.	4a
.	2d	.	.	4g
.	.	.	4f	4a
.	2.g	.	2e	4b
.	.	.	.	4cc
2G	.	.	2d	4dd
.	4g	.	.	4b
=27	=27	=27	=27	=27
1c	1g	0r	4e	4cc
.	.	.	4d	4dd
.	.	.	4c	2ee
.	.	.	4d	.
2A	1r	.	4e	2cc
.	.	.	4f#	.
2G	.	.	[2g	2b
=28	=28	=28	=28	=28
2c	2r	1r	4g]	1a
.	.	.	8f#	.
.	.	.	8e	.
2d	2d	.	2f#	.
1G	2d	2r	1g	2r
.	2d	2G	.	2b
=29	=29	=29	=29	=29
0r	4e	2G	0r	2b
.	4d	.	.	.
.	1g	2G	.	2b
.	.	1A	.	1cc
.	2f#	.	.	.
=30	=30	=30	=30	=30
2r	1g	2G	2r	0b
2E	.	2B	2g	.
2E	1r	2e	2g	.
2E	.	2e	2g	.
=31	=31	=31	=31	=31
2F	1r	2c	2a	1r
2D	.	2d	2f	.
2E	2r	1B	2g	2r
[2G	[2d	.	[2g	[2b
=32	=32	=32	=32	=32
2G]	2d]	0r	2g]	2b]
2G	2e	.	2g	2b
1A	1c	.	2e	1cc
.	.	.	2f#	.
=33	=33	=33	=33	=33
1.G	2d	2r	[0g	1.b
.	2B	2G	.	.
.	2d	2B	.	.
2C	2e	2c	.	2g
=34	=34	=34	=34	=34
2.G	2d	4d	1g]	2.b
.	.	4B	.	.
.	2G	2e	.	.
4A	.	.	.	4cc
2B	1g	2d	2r	2dd
[2c	.	2g	2c	[2ee
=35	=35	=35	=35	=35
4c]	0r	2c	2e	4ee]
4B	.	.	.	4dd
2A	.	2c	2f#	1cc
1G	.	1d	1g	.
.	.	.	.	2b
=36	=36	=36	=36	=36
2C	2r	1c	2e	1cc
1c	1e	.	1g	.
.	.	1r	.	1r
2c	2e	.	2g	.
=37	=37	=37	=37	=37
2A	2f#	0r	2a	1r
2G	2g	.	2b	.
2.c	2.e	.	1g	2r
.	.	.	.	[2cc
4B	4d	.	.	.
=38	=38	=38	=38	=38
4A	4c	0r	2.a	2cc]
4G	4B	.	.	.
2.A	1c	.	.	2cc
.	.	.	4g	.
.	.	.	4f	2a
4G	.	.	4e	.
2E	2B	.	[2e	2g
=39	=39	=39	=39	=39
1F	2.A	1r	2e]	1a
.	.	.	2d	.
.	4B	.	.	.
[1C	4c	2r	2e	2g
.	4d	.	.	.
.	4e	[2c	[2cc	[2ee
.	4f	.	.	.
=40	=40	=40	=40	=40
1C]	1g	2c]	2cc]	2ee]
.	.	2c	2cc	2ee
1r	1r	2d	2a	2ff
.	.	2e	2g	2gg
=41	=41	=41	=41	=41
0r	0r	2c	2.cc	2.ee
.	.	2A	.	.
.	.	.	4b	4dd
.	.	2.f	4a	4cc
.	.	.	4g	4b
.	.	.	[2a	2cc
.	.	4e	.	.
=42	=42	=42	=42	=42
0r	1r	2d	2a]	2dd
.	.	2c#	2e	1ee
.	[1a	1d	1f	.
.	.	.	.	2dd
=43	=43	=43	=43	=43
1.A	1a]	2c#	2e	2ee
.	.	1c#	1a	1ee
.	1e	.	.	.
2A	.	2c#	2a	2ee
=44	=44	=44	=44	=44
2D	2f#	1d	2a	2dd
2D	2f#	.	2a	2dd
1G	2g	2d	1b-	1dd
.	[2d	2G	.	.
=45	=45	=45	=45	=45
2F#	4d]	2A	2a	1.dd
.	4c	.	.	.
2G	2B-	2d	1g	.
1D	1A	1d	.	.
.	.	.	2f#	2a
=46	=46	=46	=46	=46
2r	1G	2r	1g	1b
2G	.	2B	.	.
2E	1r	2c	1r	1r
2F	.	2A	.	.
=47	=47	=47	=47	=47
1G	0r	2B	1r	0r
.	.	2.d	.	.
2F	.	.	2r	.
.	.	4c	.	.
2E	.	[2c	2e	.
=48	=48	=48	=48	=48
1D	1r	2c]	2f	1r
.	.	2B	2d	.
1C	2r	1c	4e	2r
.	.	.	4f	.
.	2e	.	4g	2ee
.	.	.	4e	.
=49	=49	=49	=49	=49
0r	2f	0r	4a	2cc
.	.	.	4g	.
.	2d	.	4a	2dd
.	.	.	4b	.
.	1c	.	2.cc	1ee
.	.	.	8b	.
.	.	.	8a	.
=50	=50	=50	=50	=50
0r	2G	0r	2b	2dd
.	2A	.	2.a	2cc
.	1e	.	.	2b
.	.	.	4g	.
.	.	.	[2g	4a
.	.	.	.	4g
=51	=51	=51	=51	=51
1r	1d	1r	2g]	1a
.	.	.	2f#	.
1G	1r	2r	[1g	1b
.	.	2B	.	.
=52	=52	=52	=52	=52
2E	0r	2c	2g]	2r
2F	.	2A	4f	1dd
.	.	.	4e	.
1G	.	2B	1d	.
.	.	[2d	.	2b
=53	=53	=53	=53	=53
2F	0r	2d]	2r	1cc
2E	.	1c	2e	.
1D	.	.	2f	1dd
.	.	2B	2d	.
=54	=54	=54	=54	=54
1C	2r	1c	2.e	2.g
.	2g	.	.	.
.	.	.	4f	4a
1r	2e	1r	2g	4b
.	.	.	.	4cc
.	2f	.	2a	[2dd
=55	=55	=55	=55	=55
0r	1g	0r	2.b	2dd]
.	.	.	.	2ee
.	.	.	4g	.
.	2f	.	4a	[1ff
.	.	.	4b	.
.	2e	.	[2cc	.
=56	=56	=56	=56	=56
0r	1d	1r	2cc]	1ff]
.	.	.	2b	.
.	1c	1g	1cc	2.ee
.	.	.	.	4ff
=57	=57	=57	=57	=57
1c	2r	1e	1r	1gg
.	2g	.	.	.
1A	2f	4c	1cc	1r
.	.	4d	.	.
.	[2e	4e	.	.
.	.	4f	.	.
=58	=58	=58	=58	=58
2.G	2e]	1g	1b	0r
.	2.d	.	.	.
4F	.	.	.	.
2E	.	1c	2g	.
.	4c	.	.	.
2F	[2c	.	2a	.
=59	=59	=59	=59	=59
1D	2c]	1d	1f	1r
.	2B	.	.	.
1C	1c	2G	2e	1gg
.	.	2g	4c	.
.	.	.	4d	.
=60	=60	=60	=60	=60
0r	0r	4c	4e	1ee
.	.	4d	4f	.
.	.	4e	4g	.
.	.	4f	4a	.
.	.	2g	2b	2.dd
.	.	2d	[2a	.
.	.	.	.	4cc
=61	=61	=61	=61	=61
0r	0r	2e	4a]	2b
.	.	.	4g	.
.	.	2c	1g	2cc
.	.	1d	.	1a
.	.	.	2f#	.
=62	=62	=62	=62	=62
0r	0r	1G	1g	1b
.	.	1r	1r	1r
=63	=63	=63	=63	=63
0C	0e	0c	0g	0ee
=64	=64	=64	=64	=64
1C	1e	1c	1g	1ee
1G	1g	1B	1b	1dd
=65	=65	=65	=65	=65
1F	1a	1A	1cc	1ff
1C	1g	1c	1cc	1ee
=66	=66	=66	=66	=66
1G	2g	2d	2b	2dd
.	2G	2g	2b	2dd
1r	1c	1g	1cc	1ee
=67	=67	=67	=67	=67
0r	2G	2g	2b	2dd
.	2A	2e	2a	2cc
.	1d	1f#	1a	1dd
=68	=68	=68	=68	=68
2r	2c	2g	1cc	1ee
1c	1e	1g	.	.
.	.	.	1r	1r
2B	2d	2g	.	.
=69	=69	=69	=69	=69
2A	2f	2c	1r	0r
2G	2e	2B	.	.
2F	2d	2A	2r	.
2F	2d	2A	[2a	.
=70	=70	=70	=70	=70
1E	1e	1B	2a]	2r
.	.	.	2g	1ee
1r	1r	1r	2cc	.
.	.	.	2b	2dd
=71	=71	=71	=71	=71
0r	0r	1r	2.a	2ff
.	.	.	.	2ee
.	.	.	4g	.
.	.	[1d	2f	2dd
.	.	.	2f	2dd
=72	=72	=72	=72	=72
0A	1r	2d]	1e	1ee
.	.	4c#	.	.
.	.	4B	.	.
.	1e	1c#	1a	1ee
=73	=73	=73	=73	=73
1D	1f#	1d	1a	1dd
1G	1g	1B	1d	1dd
=74	=74	=74	=74	=74
1C	1e	1c	1g	1ee
1C	1e	1c	1g	1cc
=75	=75	=75	=75	=75
[0G	[0d	[0B	[0g	[0dd
=76	=76	=76	=76	=76
0G]	0d]	0B]	0g]	0dd]
*	*	*	*	*-
!! Crucifixus
*Itenor	*Itenor	*Icalto	*Icant
!Tenor 2	!Tenor 1	!Altus	!Cantus
*clefGv2	*clefGv2	*clefG2	*clefG2
*k[]	*k[]	*k[]	*k[]
*C:ion	*C:ion	*C:ion	*C:ion
*M4/2	*M4/2	*M4/2	*M4/2
=77	=77	=77	=77
0r	0r	1r	0dd
.	.	[1g	.
=78	=78	=78	=78
0r	0r	2g]	1b
.	.	2g	.
.	.	1cc	1ee
=79	=79	=79	=79
0r	0r	1b	1dd
.	.	2r	2.gg
.	.	[2cc	.
.	.	.	4ff
=80	=80	=80	=80
0r	0r	2cc]	2ee
.	.	2b	2dd
.	.	2a	2cc
.	.	2g	2b
=81	=81	=81	=81
0r	0r	4f	4a
.	.	4e	4g
.	.	4f	4a
.	.	4d	4b
.	.	4e	4cc
.	.	4f	4dd
.	.	[2g	2b
=82	=82	=82	=82
0d	1r	2g]	1a
.	.	2f#	.
.	[1G	[1g	2.b
.	.	.	4cc
=83	=83	=83	=83
1B	2G]	1g]	4dd
.	.	.	4cc
.	2G	.	4b
.	.	.	4a
1e	1c	1r	1g
=84	=84	=84	=84
1d	1B	0r	0r
2.g	2r	.	.
.	[2c	.	.
4f	.	.	.
=85	=85	=85	=85
2e	2c]	0r	0r
2d	2B	.	.
2c	2A	.	.
2B	2G	.	.
=86	=86	=86	=86
4A	4c	2.a	0r
4G	4B	.	.
4A	4c	.	.
4B	4d	4g	.
4c	4e	2a	.
4d	4f#	.	.
2B	[2g	2b	.
=87	=87	=87	=87
1A	2g]	1cc	1r
.	2f#	.	.
1G	1g	2b	2r
.	.	2b	2g
=88	=88	=88	=88
0r	1r	2.a	2.cc
.	.	4g	4b
.	2r	2a	2cc
.	2G	2b	2dd
=89	=89	=89	=89
0r	2.c	4cc	1.ee
.	.	4b	.
.	.	4a	.
.	4B	4g	.
.	2c	1a	.
.	2d	.	4dd
.	.	.	4cc
=90	=90	=90	=90
2r	1e	1g	2b
1g	.	.	4a
.	.	.	4g
.	1d	1r	1a
2f	.	.	.
=91	=91	=91	=91
2e	4G	1r	1b
.	4A	.	.
2d	4B	.	.
.	8A	.	.
.	8B	.	.
2e	1c	2r	2r
2c	.	[2cc	[2ee
=92	=92	=92	=92
1g	0r	2cc]	2ee]
.	.	2b	2dd
1r	.	2a	2cc
.	.	2g	2b
=93	=93	=93	=93
0r	2r	2a	2cc
.	1a	2f	2dd
.	.	1e	1ee
.	2g	.	.
=94	=94	=94	=94
0r	2f	2a	2dd
.	2e	2g	2cc
.	2f	2a	2cc
.	2d	2f	2b
=95	=95	=95	=95
2r	0c	2g	[0cc
2e	.	2g	.
2e	.	2g	.
2e	.	2g	.
=96	=96	=96	=96
1f	1r	1a	1cc]
2.e	1c	1g	2r
.	.	.	2ee
4f	.	.	.
=97	=97	=97	=97
4g	2c	2r	2ee
4e	.	.	.
1a	2c	2cc	2ee
.	1d	2a	1ff
4g	.	2b	.
4f	.	.	.
=98	=98	=98	=98
1g	2c	1.cc	2ee
.	2c	.	2ee
1r	2A	.	2cc
.	2B	2b	2dd
=99	=99	=99	=99
0r	2.c	2a	2.ee
.	.	1g	.
.	4B	.	4dd
.	1A	.	1cc
.	.	2f#	.
=100	=100	=100	=100
2r	2G	2g	2b
2g	2G	2b	2dd
4g	1c	[1cc	1ee
4f	.	.	.
4e	.	.	.
4d	.	.	.
=101	=101	=101	=101
1c	4A	2cc]	2.ee
.	4B	.	.
.	4c	2g	.
.	4d	.	4dd
2A	2e	1a	2cc
2d	2f	.	2dd
=102	=102	=102	=102
2.c	4g	1cc	0ee
.	4e	.	.
.	1a	.	.
4d	.	.	.
1e	.	1b	.
.	2g#	.	.
=103	=103	=103	=103
0A	1a	2r	1ee
.	.	2a	.
.	2r	[1cc	2r
.	2A	.	2a
=104	=104	=104	=104
0r	2A	2cc]	2cc
.	2B	2b	2dd
.	2c	2a	2ee
.	2d	2a	2ff
=105	=105	=105	=105
1r	1e	4g	2.gg
.	.	4a	.
.	.	4b	.
.	.	8a	4ff
.	.	8b	.
2r	1c	2.cc	4ee
.	.	.	4dd
2A	.	.	4ee
.	.	4b	4dd
=106	=106	=106	=106
2A	0r	2a	2cc
2B	.	1g	2b
2c	.	.	1a
2d	.	2f#	.
=107	=107	=107	=107
1e	1r	2.g	[0g
.	.	4f	.
2c	2r	1e	.
2e	2c	.	.
=108	=108	=108	=108
2e	2c	0r	1g]
2e	2c	.	.
2d	2f	.	1r
2c	2e	.	.
=109	=109	=109	=109
2d	2f	0r	0r
2.e	2.g	.	.
4d	4f	.	.
[2c	2e	.	.
=110	=110	=110	=110
2c]	1d	2r	1r
2B	.	2g	.
2c	1e	2g	2r
2c	.	2g	2ee
=111	=111	=111	=111
2c	0r	2.cc	2ee
2c	.	.	2ee
.	.	4b	.
2f	.	2a	2dd
2e	.	2g	2cc
=112	=112	=112	=112
2f	1r	2a	2dd
2.g	.	2.b	2ee
.	1G	.	2dd
4f	.	4a	.
2e	.	4g	[2cc
.	.	4f	.
=113	=113	=113	=113
1d	2G	0g	4cc]
.	.	.	8b
.	.	.	8a
.	2G	.	2b
2e	2c	.	2cc
[2g	2B	.	2dd
=114	=114	=114	=114
2g]	2c	1a	4cc
.	.	.	4b
4f#	2.d	.	4a
4e	.	.	4g
2f#	.	2r	2a
.	4c	.	.
2g	2B	2d	2b
=115	=115	=115	=115
1c	1A	2e	1cc
.	.	2f#	.
1d	1G	1g	2r
.	.	.	2b
=116	=116	=116	=116
0r	2A	1f	2cc
.	2B	.	2dd
.	1c	2e	1ee
.	.	[2g	.
=117	=117	=117	=117
0r	1B	4g]	1dd
.	.	4f	.
.	.	4d	.
.	.	4e	.
.	2A	2f	2cc
.	[2c	4e	[2ee
.	.	4d	.
=118	=118	=118	=118
1r	4c]	4e	4ee]
.	4B	4f#	4dd
.	2G	1g	2b
2r	1A	.	1cc
2c	.	2f#	.
=119	=119	=119	=119
2d	1G	1g	1b
2e	.	.	.
1f	1r	1d	2r
.	.	.	2a
=120	=120	=120	=120
1e	0r	2.g	2b
.	.	.	2cc
.	.	4a	.
2d	.	2b	1dd
[2f	.	[2a	.
=121	=121	=121	=121
4f]	0r	4a]	2.cc
4e	.	4g	.
2c	.	1g	.
.	.	.	4b
1d	.	.	1a
.	.	2f#	.
=122	=122	=122	=122
0e	0c	1g	2g
.	.	.	2gg
.	.	2r	4gg
.	.	.	4ff
.	.	2cc	4ee
.	.	.	4dd
=123	=123	=123	=123
0c	1A	4cc	2ee
.	.	4b	.
.	.	4a	1cc
.	.	4g	.
.	1F	2a	.
.	.	[2f	[2a
=124	=124	=124	=124
1d	2B-	2f]	2a]
.	2B-	1d	2g
2e	1A	.	[1a
2e	.	2c#	.
=125	=125	=125	=125
2.d	2r	2d	1a_
.	1d	1f	.
8c	.	.	.
8B	.	.	.
1A	.	.	1a_
.	2c#	2e	.
=126	=126	=126	=126
0r	1d	1f	1a]
.	2c	2e	1r
.	2B	2d	.
=127	=127	=127	=127
2r	2c	2e	1r
1g	2B	2d	.
.	1A	1c	2r
2f#	.	.	[2cc
=128	=128	=128	=128
1g	1G	1d	2cc]
.	.	.	2b
2f	1r	2r	1cc
2e	.	[2g	.
=129	=129	=129	=129
1d	0r	2g]	2b
.	.	2f#	2a
1G	.	1g	4b
.	.	.	4cc
.	.	.	4dd
.	.	.	4b
=130	=130	=130	=130
1A	0r	2f	4cc
.	.	.	4dd
.	.	2e	2ee
1F	.	2f	2dd
.	.	2e	[2cc
=131	=131	=131	=131
1G	2r	1d	2cc]
.	1g	.	2b
1A	.	2c	1cc
.	2f#	[2cc	.
=132	=132	=132	=132
1G	1g	2cc]	2r
.	.	2b	1dd
2r	2f	2a	.
[2g	2e	2g	2cc
=133	=133	=133	=133
2g]	1d	1a	1dd
2f#	.	.	.
1g	1e	2r	2cc
.	.	2e	2b
=134	=134	=134	=134
2f	2.A	2c	2.cc
2e	.	2c	.
.	4G	.	4b
2f	1F	4d	1a
.	.	4c	.
2e	.	[2c	.
=135	=135	=135	=135
1d	1G	2c]	2g
.	.	2B	2gg
1c	2r	4c	4gg
.	.	4d	4ff
.	2c	4e	4ee
.	.	4f	4dd
=136	=136	=136	=136
2r	4c	2g	4ee
.	4B	.	4dd
2e	4A	1a	4cc
.	4G	.	4b
2f	2F	.	2a
2d	2G	[2g	2b
=137	=137	=137	=137
1c	1A	2g]	1cc
.	.	2f#	.
[1d	[1G	[1g	[1b
=138	=138	=138	=138
1d]	1G]	1g]	1b]
*-	*-	*-	*-
!! Et in Spiritum
**kern	**kern	**kern	**kern	**kern
*Ibass	*Itenor	*Itenor	*Icalto	*Icant
!Bassus	!Tenor 2	!Tenor 1	!Altus	!Cantus
*clefF4	*clefGv2	*clefGv2	*clefG2	*clefG2
*k[]	*k[]	*k[]	*k[]	*k[]
*C:ion	*C:ion	*C:ion	*C:ion	*C:ion
*M3/2	*M3/2	*M3/2	*M3/2	*M3/2
=139	=139	=139	=139	=139
1C	1e	1c	1g	1cc
2C	2e	2c	2g	2cc
=140	=140	=140	=140	=140
2.G	2.d	2.B	2.g	2.dd
4G	4d	4B	4g	4dd
2G	2g	2B	2g	2dd
=141	=141	=141	=141	=141
1D	1f	1d	1a	1ff
2D	2d	2d	2a	2ff
=142	=142	=142	=142	=142
2.A	2.e	2.c#	2.a	2.ee
4A	4e	4c#	4a	4ee
2A	2e	2c#	2a	2ee
=143	=143	=143	=143	=143
2d	2f#	1r	2a	2dd
2d	2f#	.	2a	2dd
2B	2g	2r	2d	2dd
=144	=144	=144	=144	=144
2c	2e	1r	2g	2cc
1A	1c	.	1f#	1cc
.	.	2r	.	.
=145	=145	=145	=145	=145
1G	2d	2r	2g	2b
.	2r	2g	2b	2dd
2r	2r	2g	2b	2dd
=146	=146	=146	=146	=146
1r	1r	1c	1cc	1ee
2r	2r	2d	2b	2dd
=147	=147	=147	=147	=147
1r	1r	2.f	2.a	2.cc
.	.	4f	4a	4cc
2r	2r	2e	2g	2cc
=148	=148	=148	=148	=148
1r	1r	1d	1a	1ff
2r	2r	2c	2cc	2ee
=149	=149	=149	=149	=149
1r	1r	1g	1b	1dd
2r	2r	2g	2b	2dd
=150	=150	=150	=150	=150
1c	1e	2r	1r	2r
.	.	2g	.	2cc
2c	2e	2g	2r	2cc
=151	=151	=151	=151	=151
1F	1f	1a	1r	1cc
2F	2f	2a	2r	2cc
=152	=152	=152	=152	=152
2G	2d	2g	1r	2b
2A	2c	2e	.	2a
2F	2A	2d	2r	2a
=153	=153	=153	=153	=153
1E	1B	1e	1r	1g#
2r	2r	2r	2r	2r
=154	=154	=154	=154	=154
2.C	2.c	2.e	2.g	2.ee
4C	4c	4e	4g	4ee
2C	2c	2e	2g	2ee
=155	=155	=155	=155	=155
2G	2d	2B	2g	2dd
1C	1e	1c	1g	1cc
=156	=156	=156	=156	=156
1G	1d	1B	1g	1dd
2C	2e	2c	2e	2cc
=157	=157	=157	=157	=157
2.C	2.g	2.e	2.c	2.ee
4C	4g	4e	4c	4ee
2C	2c	2e	2g	2ee
=158	=158	=158	=158	=158
2G	2d	2B	2g	2dd
1C	1e	1c	1g	1cc
=159	=159	=159	=159	=159
2G	2d	2B	2g	2dd
2c	2e	2r	2g	2r
2c	2e	2r	2g	2r
=160	=160	=160	=160	=160
1A	1f#	1r	1a	1r
2G	2g	2r	2b	2r
=161	=161	=161	=161	=161
1c	1e	2r	2g	2r
.	.	2c	2cc	2ee
2r	2r	2c	2cc	2ee
=162	=162	=162	=162	=162
1r	1r	1d	1a	1ff#
2r	2r	2e	2g	2gg
=163	=163	=163	=163	=163
1r	1r	1c	1cc	1ee
2r	2r	2G	2b	2dd
=164	=164	=164	=164	=164
1r	1r	2A	2a	2cc
.	.	1e	1g#	1b
2r	2r	.	.	.
!! Et unam sanctam
*Ibass	*Itenor	*Itenor	*Icalto	*Icant
!Bassus	!Tenor 2	!Tenor 1	!Altus	!Cantus
*clefF4	*clefGv2	*clefGv2	*clefG2	*clefG2
*k[]	*k[]	*k[]	*k[]	*k[]
*C:ion	*C:ion	*C:ion	*C:ion	*C:ion
*M4/2	*M4/2	*M4/2	*M4/2	*M4/2
=165	=165	=165	=165	=165
2r	2r	1A	1a	1a
2A	2e	.	.	.
2A	2f	1r	1r	1r
2B	2d	.	.	.
=166	=166	=166	=166	=166
1c	1e	0r	0r	0r
2B	2d	.	.	.
2A	2c	.	.	.
=167	=167	=167	=167	=167
2A	2.B	2r	2r	0r
2G#	.	2e	2b	.
.	4B	.	.	.
2.A	1A	2e	2cc	.
.	.	2f	2a	.
8G	.	.	.	.
8F	.	.	.	.
=168	=168	=168	=168	=168
1E	0r	2.g	2.b	2r
.	.	.	.	2ee
.	.	4g	4b	.
1r	.	1a	[1cc	2ee
.	.	.	.	2ff
=169	=169	=169	=169	=169
0r	0r	1e	2cc]	2.gg
.	.	.	2b	.
.	.	.	.	4gg
.	.	2.a	2.cc	2ff
.	.	.	.	2ee
.	.	4g	4b	.
=170	=170	=170	=170	=170
1r	1r	2f	2a	2ee
.	.	2f	2a	2dd
2r	2r	1e	2.g	1ee
2C	2G	.	.	.
.	.	.	4f	.
=171	=171	=171	=171	=171
2C	2G	0r	2.e	0r
2C	2G	.	.	.
.	.	.	4d	.
[1F	[1A	.	1c	.
=172	=172	=172	=172	=172
2F]	2A]	1c	0r	0r
2E	2G	.	.	.
2E	2G	2c	.	.
2C	[2c	2c	.	.
=173	=173	=173	=173	=173
1D	2c]	1f	0r	0r
.	2B	.	.	.
[1C	1c	2e	.	.
.	.	2d	.	.
=174	=174	=174	=174	=174
0C]	2.e	1c	2.g	2.cc
.	4e	.	4g	4cc
.	2e	1r	2g	2cc
.	2e	.	2g	2cc
=175	=175	=175	=175	=175
0r	1d	0r	1.a	1.ff
.	2A	.	.	.
.	[2c	.	2g	2ee
=176	=176	=176	=176	=176
0r	2c]	0r	2g	2ee
.	2A	.	1cc	2cc
.	1G	.	.	1dd
.	.	.	2b	.
=177	=177	=177	=177	=177
1A	2c	2r	2cc	1cc
.	1e	1A	1cc	.
1E	.	.	.	1r
.	2e	2G	2b	.
=178	=178	=178	=178	=178
1F	1A	2c	1a	1r
.	.	2d	.	.
2E	2B	1e	2g	2r
[2C	[2c	.	[2g	[2ee
=179	=179	=179	=179	=179
2C]	2c]	2.e	2g]	2ee]
2C	2c	.	2g	2ee
.	.	4e	.	.
2C	2c	2e	2g	2cc
2C	2c	2e	2g	2cc
=180	=180	=180	=180	=180
1C	1e	1c	1g	1cc
1G	1d	1B	1g	2dd
.	.	.	.	[2b
=181	=181	=181	=181	=181
1E	1e	1G	1g	2b]
.	.	.	.	2cc
1F	1c	2A	1f	[1a
.	.	[2c	.	.
=182	=182	=182	=182	=182
0D	0d	2c]	1f	2a]
.	.	4B	.	2g
.	.	4A	.	.
.	.	1B	1d	1f
=183	=183	=183	=183	=183
0C	2g	1c	2r	2e
.	2c	.	2g	2ee
.	1c	1r	1g	1ee
=184	=184	=184	=184	=184
0r	2f	0r	2a	2dd
.	2e	.	2g	2cc
.	2f	.	2a	2dd
.	2f	.	2a	2cc
=185	=185	=185	=185	=185
1r	2.d	1G	2g	2cc
.	.	.	2g	2b
.	4d	.	.	.
1C	2c	1G	2.e	1cc
.	2e	.	.	.
.	.	.	4f	.
=186	=186	=186	=186	=186
1C	1e	2.c	1g	0r
.	.	4B	.	.
2F	2d	2A	2r	.
2E	2c	2G	2g	.
=187	=187	=187	=187	=187
2F	2d	2A	2f	2r
2F	2c	2A	2f	2cc
2D	2c	2F	2f	4dd
.	.	.	.	4ee
2D	2B	2F	2f	4ff
.	.	.	.	4dd
=188	=188	=188	=188	=188
1C	1c	2G	4e	4ee
.	.	.	4d	4ff
.	.	4g	4c	2.gg
.	.	4f	4d	.
2.c	2r	4e	4e	.
.	.	4d	4f	4ff
.	[2e	[2c	2g	4ee
4B	.	.	.	4dd
=189	=189	=189	=189	=189
4A	2e]	4c]	0a	2cc
4G	.	4B	.	.
4F	2.a	4A	.	2.ff
4E	.	4G	.	.
1D	.	1A	.	.
.	4g	.	.	4ee
.	4f	.	.	4dd
.	4e	.	.	4cc
=190	=190	=190	=190	=190
1G	4d	2.B	[0g	4b
.	4c	.	.	4cc
.	4B	.	.	2.dd
.	4A	8c	.	.
.	.	8d	.	.
2.E	1G	1e	.	.
.	.	.	.	4cc
.	.	.	.	[2cc
4F	.	.	.	.
=191	=191	=191	=191	=191
0G	1G	0d	1g]	2cc]
.	.	.	.	4b
.	.	.	.	4a
.	2r	.	2.g	1b
.	[2g	.	.	.
.	.	.	4f	.
=192	=192	=192	=192	=192
1C	4g]	[0c	4e	[0cc
.	4f	.	4d	.
.	4e	.	4c	.
.	4d	.	4B	.
[1F	4c	.	2A	.
.	4B	.	.	.
.	4A	.	[2a	.
.	4G	.	.	.
=193	=193	=193	=193	=193
2F]	2F	1c_	2a]	1cc_
2E	2G	.	2g	.
1F	1A	1c_	1f	1cc_
=194	=194	=194	=194	=194
0C	0G	0c]	0e	0cc]
==	==	==	==	==
*-	*-	*-	*-	*-
!!!CDT: 1525/^1526/-1594/2/2
!!!OCY: Italia
!!!AGN: Mass (Parody)
!!!AST: renaissance, vocal
!!!ASW: Motet (Maffoni)
!!!PWK: Masses, Book 6
!!!RNB: Cadence finals: G,A
!!!YOR: Le Opere Complete, v. 21, p. 105
!!!YOO: Rome, Italy: Fratelli Scalera
!!!END: 1992//
!!!EED: John Miller
!!!YEC: Copyright 2000, John Miller
!!!YEN: United States of America
!!!YEM: Rights to all derivative electronic formats reserved.
!!!YEM: Refer to licensing agreement for further details.
!!!YEM: This file must be accompanied by the licensing agreement.
!!!YEM: A copy of the licensing agreement may be found at http://www.music-cog.ohio-state.edu/HumdrumDatabases/Palestrina/license.txt
!!!EMD: converted to Humdrum by Bret Aarden
